!!!OTL: ES IST SO STILL GEWORDEN
!!!ARE: Europa, Mitteleuropa, Deutschland
!!!SCT: B0755
!!!YEM: Copyright 1995, estate of Helmut Schaffrath.
**kern
*ICvox
*Ivox
*M4/4
*k[b-e-a-d-]
*A-:
{4e-
=1
4a-
4g
4a-
4b-
=2
4.g
8f
4e-}
{4b-
=3
4cc
4b-
4a-
8g
8f
=4
2e-
4r}
{4e-
=5
4a-
4g
4a-
4b-
=6
4.g
8f
4e-}
{4b-
=7
4cc
4b-
4a-
8g
8f
=8
2e-
4r}
{4ee-
=9
4dd-
4cc
4b-
4a-
=10
4.dd-
8cc
4b-}
{4cc
=11
4.dd-
8cc
4b-
4a-
=12
2b-
4r}
{4e-
=13
4a-
4b-
4cc
4dd-
=14
4ee-
8dd-
8cc
4b-}
{4dd-
=15
4cc
4b-
4a-
4g
=16
2a-
4r}
==
!!!AGN: Tageszeiten - Lied, Abend, religioes
!!!ONB: ESAC (Essen Associative Code) Database: BOEHME
!!!AMT: simple quadruple
!!!AIN: vox
!!!EED: Helmut Schaffrath
!!!EEV: 1.0
*-
